X:370
T:Keel Row
R:Reel
B:The Athole Collection
M:C|
L:1/8
K:A
e/d/|cA A/A/A d2 Bd|c2 A>c BGEe|cA A/A/A d2 B>d|cABG A2A:|
|:ceea f2 (ed|cAAc BGEe|1 ceea f2 (e>d|cABG A2a:|2 ce e(f/g/ aefd|
cABG A2A||

